packages/katcn/src/icons/svg/share.svg

<svg width="26" height="24" viewBox="0 0 26 24" fill="none" xmlns="http://www.w3.org/2000/svg">
<path fill-rule="evenodd" clip-rule="evenodd" d="M15.5676 5.08901C15.2613 5.23753 14.99 5.57474 14.99 6.09791V7.80718C14.99 8.35947 14.5423 8.80718 13.99 8.80718H10.91C6.7976 8.80718 3.18318 12.4297 3.00674 17.1329C4.9848 15.2064 7.56425 14.1001 10.36 14.1001H13.99C14.5423 14.1001 14.99 14.5478 14.99 15.1001V17.721C14.99 18.2441 15.2613 18.5813 15.5676 18.7299C15.8737 18.8783 16.2175 18.8489 16.4942 18.5885C16.4941 18.5886 16.4942 18.5885 16.4942 18.5885L22.6345 12.7956C23.1522 12.2436 23.0799 11.428 22.6684 11.055L22.6538 11.0415L16.4944 5.23058C16.4943 5.23044 16.4946 5.23072 16.4944 5.23058C16.2178 4.97034 15.8737 4.94058 15.5676 5.08901ZM14.6949 3.28942C15.6812 2.8112 16.9323 2.8957 17.8656 3.77459L24.0197 9.58055C25.3562 10.8008 25.2841 12.9307 24.0595 14.1993C24.0486 14.2105 24.0376 14.2214 24.0262 14.2321L17.8662 20.0437C16.933 20.9226 15.6812 21.0077 14.6949 20.5295C13.7087 20.0512 12.99 19.021 12.99 17.721V16.1001H10.36C7.32778 16.1001 4.55849 17.7159 2.85454 20.5194C2.62164 20.9026 2.16212 21.0839 1.73031 20.9629C1.29851 20.842 1 20.4484 1 20V17.4931C1 11.6588 5.44679 6.80718 10.91 6.80718H12.99V6.09791C12.99 4.79785 13.7087 3.76764 14.6949 3.28942Z" fill="black"/>
</svg>

<svg xmlns="http://www.w3.org/2000/svg" fill="none" viewBox="0 0 26 24"><path fill="#000" fill-rule="evenodd" d="M15.568 5.089c-.307.149-.578.486-.578 1.009v1.71a1 1 0 0 1-1 1h-3.08c-4.112 0-7.727 3.622-7.903 8.325C4.985 15.206 7.564 14.1 10.36 14.1h3.63a1 1 0 0 1 1 1v2.621c0 .523.271.86.578 1.009s.65.119.926-.142l6.14-5.792c.518-.552.446-1.368.034-1.741l-.014-.014-6.16-5.81a.79.79 0 0 0-.926-.142m-.873-1.8c.986-.478 2.237-.393 3.17.486L24.02 9.58c1.336 1.22 1.264 3.35.04 4.618l-.034.033-6.16 5.812c-.933.879-2.185.964-3.171.485-.986-.478-1.705-1.508-1.705-2.808V16.1h-2.63c-3.032 0-5.802 1.615-7.505 4.418A1 1 0 0 1 1 20v-2.507C1 11.66 5.447 6.807 10.91 6.807h2.08v-.71c0-1.3.719-2.33 1.705-2.808" clip-rule="evenodd"/></svg>
